lib/flags/m/ISR.svg

<svg xmlns="http://www.w3.org/2000/svg" fill="none" viewBox="0 0 20 15"><mask id="ISR_svg__a" width="20" height="15" x="0" y="0" mask-type="alpha" maskUnits="userSpaceOnUse"><path fill="#fff" d="M0 0H20V15H0z"/></mask><g mask="url(#ISR_svg__a)"><path fill="#F7FCFF" fill-rule="evenodd" d="M0 0V15H20V0H0Z" clip-rule="evenodd"/><mask id="ISR_svg__b" width="20" height="15" x="0" y="0" mask-type="alpha" maskUnits="userSpaceOnUse"><path fill="#fff" fill-rule="evenodd" d="M0 0V15H20V0H0Z" clip-rule="evenodd"/></mask><g fill="#3D58DB" fill-rule="evenodd" clip-rule="evenodd" mask="url(#ISR_svg__b)"><path d="M0 2.5V4.72843H20V2.5H0zM0 10.2175V12.5H20V10.2175H0z"/><path d="M7.11328 9.33678H12.9739L10.0725 4.32397L7.11328 9.33678ZM11.7816 8.64927H8.31749L10.0666 5.68628L11.7816 8.64927Z"/><path d="M6.93225 5.57828H12.9255L10.0849 10.6068L6.93225 5.57828ZM11.7475 6.26578H8.17473L10.0542 9.26347L11.7475 6.26578Z"/></g></g></svg>

<svg xmlns="http://www.w3.org/2000/svg" fill="none" viewBox="0 0 20 15"><mask id="ISR_svg__a" width="20" height="15" x="0" y="0" maskUnits="userSpaceOnUse"><path fill="#fff" d="M0 0h20v15H0z"/></mask><g mask="url(#ISR_svg__a)"><path fill="#F7FCFF" fill-rule="evenodd" d="M0 0v15h20V0H0z" clip-rule="evenodd"/><mask id="ISR_svg__b" width="20" height="15" x="0" y="0" maskUnits="userSpaceOnUse"><path fill="#fff" fill-rule="evenodd" d="M0 0v15h20V0H0z" clip-rule="evenodd"/></mask><g fill="#3D58DB" fill-rule="evenodd" clip-rule="evenodd" mask="url(#ISR_svg__b)"><path d="M0 2.5v2.228h20V2.5H0zm0 7.717V12.5h20v-2.283H0z"/><path d="M7.113 9.337h5.86l-2.9-5.013-2.96 5.013zm4.669-.688H8.317l1.75-2.963 1.715 2.963z"/><path d="M6.932 5.578h5.993l-2.84 5.029-3.153-5.029zm4.816.688H8.175l1.88 2.998 1.693-2.998z"/></g></g></svg>
